X: 06080
T: The ROAD TO WALTHAM
C: Bob McQuillen May '82
B: Bob's Note Book 6 #80
%R: reel
Z: 2021 John Chambers <jc:trillian.mit.edu>
M: C
L: 1/8
K: G
Bd \
| egdB AGEG | DEGB d2Bd | edBd egeg | dedB AGBd |\
| egdB AGEG | DEGB d2Bd | egde dBGB | AGED G2 :|
|: de \
| g2GA BdBA | GBAG E2de | g2GA BGEG | DEGB ABde |\
| g2GA Bdgb | abag edga | bgag edBe | dBAB G2 :|
%%begintext align
%% Every year at this time,
%% April Limber & I go down to Waltham, Mass., to the French-American
%% Victory Club, where April enters the fiddle
%% contest, and I get to back her up on piano. It's a great
%% time, and we get to hear John Campbell, Ludger Laforte, Joe
%% Cormier, and Jerry Robishaud - some of the very best of the
%% Cape Breton-style fiddlers.
%%endtext

%%sep 1 1 500

%%sep 1 1 500

